__todo__/reddit.svg

<svg height="176" preserveAspectRatio="xMidYMid" viewBox="0 0 511 176" width="511" xmlns="http://www.w3.org/2000/svg"><g transform="translate(210.936183 42.355298)"><circle cx="249.727023" cy="18.136916" fill="#ff4500" r="11.113527"/><path d="m156.208855 0c3.341545 0 6.094664 2.63789375 6.280561 5.93488402l.010004.35568087v80.82955721c0 3.4608855-2.82968 6.2905649-6.290565 6.2905649-3.038779 0-5.661313-2.2004275-6.185038-5.1375878-4.297283 4.2992367-9.749496 6.5016184-16.145588 6.5016184-16.563786 0-29.983267-14.9926107-29.983267-33.4441527s13.419481-33.4441527 29.983267-33.4441527c6.150088 0 11.329943 1.9386603 15.541301 5.9097937l.500714.4862979v-27.99193891c0-3.4608855 2.82968-6.29056489 6.288611-6.29056489zm65.629801 0c3.341545 0 6.094665 2.63789375 6.280562 5.93488402l.010003.35568087v80.82955721c0 3.4608855-2.829679 6.2905649-6.290565 6.2905649-3.040732 0-5.661312-2.2004275-6.185038-5.1375878-4.299236 4.2992367-9.749496 6.5016184-16.145587 6.5016184-16.563787 0-29.983268-14.9926107-29.983268-33.4441527s13.419481-33.4441527 29.983268-33.4441527c6.150088 0 11.329942 1.9386603 15.539563 5.9097937l.500498.4862979v-27.99193891c0-3.4608855 2.831633-6.29056489 6.290564-6.29056489zm-152.0170987 27.7808855c13.9451603 0 25.6859847 10.6953282 29.0413435 25.1622595l.1135901.6052348c.1687027.9624523.3253939 2.1874925.4101351 3.9031011.2029492 3.8674163-2.7531479 7.8324021-7.9123582 8.0622911l-.4750617.0105028v-.2110534h-38.2651603c1.5731298 9.5403969 8.7020458 16.7748397 17.0875115 16.7748397 7.1308702 0 11.5336793-3.9826565 13.8396335-5.975939 2.411481-1.9913282 5.661313-2.6205801 8.2818932-.8383511 3.1462595 2.2023817 3.6699847 6.7107175 1.0494045 9.6459237-5.346687 5.9759389-12.790229 9.7494961-23.1709312 9.7494961-16.5637863 0-29.9832672-14.9926106-29.9832672-33.4441526s13.4194809-33.4441527 29.9832672-33.4441527zm211.8298817-13.8485618.364805.0108824c3.235525.2016314 5.689694 2.9381249 5.860865 6.1418742l.009547.3577899v8.8075725h5.76684c3.14626 0 5.76684 2.7241527 5.555786 5.9739848-.201057 2.9237815-2.631663 5.0724603-5.427723 5.2334182l-.337162.0096963h-5.557741v46.7581069c0 3.4589313-2.724152 6.1850381-6.394137 6.3941374-3.339658 0-6.094534-2.6378938-6.280554-5.9331251l-.010011-.3554856v-46.7581069h-5.346687c-3.144305 0-5.76684-2.7261069-5.555786-5.9759389.201057-2.9237816 2.631663-5.0724604 5.427723-5.2334183l.337162-.0096962h5.243115v-9.1202443c0-3.5476519 2.83957-6.3100852 6.343958-6.3014473zm-246.4250573 14.2687145c2.9352061.5237252 5.2411603 3.0407328 5.2411603 6.1850381 0 3.1337667-2.3404319 5.780549-5.3269096 6.1548463l-.3344034.0321461h-1.2585038c-11.9738852-1.3430454-20.6948592 7.9877014-20.9603628 19.4823533l-.0062326.5403643v26.5243358c0 3.6699848-3.04073285 6.4996642-6.71071759 6.2905649-3.23552453-.2016314-5.68969372-2.9381249-5.86086457-6.1418741l-.00954764-.35779v-51.3719695c0-3.4589313 2.82967939-6.2886107 6.29056489-6.2886107 3.03588102 0 6.07358381 2.2462176 6.27947071 5.8926069l.0110942.3960038v.8403054c4.9265343-6.1869924 13.5230534-9.540397 22.6452519-8.1783206zm214.5006413 6.6051908c3.339658 0 6.092712 2.6378938 6.278607 5.934884l.010004.3556809v46.0233282c0 3.4608855-2.82968 6.2905649-6.288611 6.2905649-3.341545 0-6.094664-2.6378937-6.280561-5.934884l-.010004-.3556809v-46.0233282c0-3.4608855 2.829679-6.2905649 6.290565-6.2905649zm-115.743267 5.5557863c-9.645924 0-17.404092 9.4368244-17.404092 20.9685496 0 11.6372519 7.758168 20.9665954 17.404092 20.9665954 9.540397 0 17.404091-9.3293435 17.404091-20.9665954s-7.758168-20.9685496-17.404091-20.9685496zm65.524275 0c-9.645924 0-17.402138 9.4368244-17.402138 20.9685496 0 11.6372519 7.756214 20.9665954 17.402138 20.9665954 9.645923 0 17.404091-9.3293435 17.404091-20.9665954s-7.758168-20.9685496-17.404091-20.9685496zm-129.7900463.1055267c-7.3774989 0-13.7527515 5.5076893-16.2894952 13.3894997l-.1707185.5537064h32.9204275c-2.4114809-8.0727939-8.9130993-13.9432061-16.4602138-13.9432061z" fill="#222"/></g><circle cx="87.854901" cy="87.854901" fill="#ff4500" r="87.854901"/><path d="m146.459359 87.8549008c0-7.1289161-5.764886-12.790229-12.790229-12.790229-3.458932 0-6.605191 1.3620763-8.911145 3.564458-8.805619-6.2905649-20.863023-10.3787481-34.2825041-10.9024733l5.8704122-27.4682138 19.0807939 4.0881833c.211053 4.8229618 4.19371 8.7020458 9.122198 8.7020458 5.032062 0 9.120245-4.0881833 9.120245-9.1221985 0-5.0320611-4.088183-9.1202443-9.120245-9.1202443-3.564458 0-6.710717 2.096855-8.17832 5.1375878l-21.2812215-4.5083359c-.6292519-.1055267-1.2585038 0-1.6786565.314626-.5237252.3146259-.8383511.8383511-.9419236 1.467603l-6.5016184 30.6125191c-13.6285801.4201527-25.8950839 4.5083359-34.806229 10.9044275-2.3059542-2.2023817-5.4522137-3.564458-8.911145-3.564458-7.128916 0-12.790229 5.7648855-12.790229 12.790229 0 5.2411603 3.1443053 9.6439694 7.5490687 11.6372519-.2110534 1.2565496-.314626 2.5150536-.314626 3.8790836 0 19.708092 22.9598779 35.750107 51.2664428 35.750107 28.3065645 0 51.2664425-15.936488 51.2664425-35.750107 0-1.258503-.105526-2.622534-.314626-3.8790836 4.402809-1.9932825 7.547115-6.5016183 7.547115-11.7427786zm-87.854901 9.1202442c0-5.032061 4.0881832-9.1202442 9.1221985-9.1202442 5.0320611 0 9.1202443 4.0881832 9.1202443 9.1202442s-4.0881832 9.122199-9.1202443 9.122199c-5.0340153.103572-9.1221985-4.090138-9.1221985-9.122199zm51.057344 24.218382c-6.290565 6.290565-18.2424432 6.710717-21.7013745 6.710717-3.564458 0-15.5163359-.525679-21.7033283-6.710717-.9419236-.943878-.9419236-2.411481 0-3.355359.9438779-.941924 2.411481-.941924 3.3553588 0 3.9846107 3.984611 12.3720305 5.346687 18.3479695 5.346687 5.9759389 0 14.4669315-1.362076 18.3460155-5.346687.943878-.941924 2.411481-.941924 3.355359 0 .838351.943878.838351 2.411481 0 3.355359zm-1.678657-14.992611c-5.032061 0-9.1202442-4.088183-9.1202442-9.1202442 0-5.0320611 4.0881832-9.1202443 9.1202442-9.1202443 5.034015 0 9.122199 4.0881832 9.122199 9.1202443 0 4.9265342-4.088184 9.1202442-9.122199 9.1202442z" fill="#fff"/></svg>

<?xml version="1.0" encoding="UTF-8"?>
<svg width="511px" height="176px" viewBox="0 0 511 176" version="1.1" xmlns="http://www.w3.org/2000/svg" xmlns:xlink="http://www.w3.org/1999/xlink" preserveAspectRatio="xMidYMid">
    <g>
        <g transform="translate(210.936183, 42.355298)">
            <circle fill="#FF4500" cx="249.727023" cy="18.136916" r="11.1135267"></circle>
            <path d="M156.208855,0 C159.5504,0 162.303519,2.63789375 162.489416,5.93488402 L162.49942,6.29056489 L162.49942,87.1201221 C162.49942,90.5810076 159.66974,93.410687 156.208855,93.410687 C153.170076,93.410687 150.547542,91.2102595 150.023817,88.2730992 C145.726534,92.5723359 140.274321,94.7747176 133.878229,94.7747176 C117.314443,94.7747176 103.894962,79.7821069 103.894962,61.3305649 C103.894962,42.8790229 117.314443,27.8864122 133.878229,27.8864122 C140.028317,27.8864122 145.208172,29.8250725 149.41953,33.7962059 L149.920244,34.2825038 L149.920244,6.29056489 C149.920244,2.82967939 152.749924,0 156.208855,0 Z M221.838656,0 C225.180201,0 227.933321,2.63789375 228.119218,5.93488402 L228.129221,6.29056489 L228.129221,87.1201221 C228.129221,90.5810076 225.299542,93.410687 221.838656,93.410687 C218.797924,93.410687 216.177344,91.2102595 215.653618,88.2730992 C211.354382,92.5723359 205.904122,94.7747176 199.508031,94.7747176 C182.944244,94.7747176 169.524763,79.7821069 169.524763,61.3305649 C169.524763,42.8790229 182.944244,27.8864122 199.508031,27.8864122 C205.658119,27.8864122 210.837973,29.8250725 215.047594,33.7962059 L215.548092,34.2825038 L215.548092,6.29056489 C215.548092,2.82967939 218.379725,0 221.838656,0 Z M69.8215573,27.7808855 C83.7667176,27.7808855 95.507542,38.4762137 98.8629008,52.943145 L98.9764909,53.5483798 C99.1451936,54.5108321 99.3018848,55.7358723 99.386626,57.4514809 C99.5895752,61.3188972 96.6334781,65.283883 91.4742678,65.513772 L90.9992061,65.5242748 L90.9992061,65.3132214 L52.7340458,65.3132214 C54.3071756,74.8536183 61.4360916,82.0880611 69.8215573,82.0880611 C76.9524275,82.0880611 81.3552366,78.1054046 83.6611908,76.1121221 C86.0726718,74.1207939 89.3225038,73.491542 91.943084,75.273771 C95.0893435,77.4761527 95.6130687,81.9844885 92.9924885,84.9196947 C87.6458015,90.8956336 80.2022595,94.6691908 69.8215573,94.6691908 C53.257771,94.6691908 39.8382901,79.6765802 39.8382901,61.2250382 C39.8382901,42.7734962 53.257771,27.7808855 69.8215573,27.7808855 Z M281.651439,13.9323237 L282.016244,13.9432061 C285.251769,14.1448375 287.705938,16.881331 287.877109,20.0850803 L287.886656,20.4428702 L287.886656,29.2504427 L293.653496,29.2504427 C296.799756,29.2504427 299.420336,31.9745954 299.209282,35.2244275 C299.008225,38.148209 296.577619,40.2968878 293.781559,40.4578457 L293.444397,40.467542 L287.886656,40.467542 L287.886656,87.2256489 C287.886656,90.6845802 285.162504,93.410687 281.492519,93.6197863 C278.152861,93.6197863 275.397985,90.9818925 275.211965,87.6866612 L275.201954,87.3311756 L275.201954,40.5730687 L269.855267,40.5730687 C266.710962,40.5730687 264.088427,37.8469618 264.299481,34.5971298 C264.500538,31.6733482 266.931144,29.5246694 269.727204,29.3637115 L270.064366,29.3540153 L275.307481,29.3540153 L275.307481,20.233771 C275.307481,16.6861191 278.147051,13.9236858 281.651439,13.9323237 L281.651439,13.9323237 Z M35.2263817,28.2010382 C38.1615878,28.7247634 40.467542,31.241771 40.467542,34.3860763 C40.467542,37.519843 38.1271101,40.1666253 35.1406324,40.5409226 L34.806229,40.5730687 L33.5477252,40.5730687 C21.57384,39.2300233 12.852866,48.5607701 12.5873624,60.055422 L12.5811298,60.5957863 L12.5811298,87.1201221 C12.5811298,90.7901069 9.54039695,93.6197863 5.87041221,93.410687 C2.63488768,93.2090556 0.180718492,90.4725621 0.00954763759,87.2688129 L1.42108547e-14,86.9110229 L1.42108547e-14,35.5390534 C1.42108547e-14,32.0801221 2.82967939,29.2504427 6.29056489,29.2504427 C9.32644591,29.2504427 12.3641487,31.4966603 12.5700356,35.1430496 L12.5811298,35.5390534 L12.5811298,36.3793588 C17.5076641,30.1923664 26.1041832,26.8389618 35.2263817,28.2010382 Z M249.727023,34.806229 C253.066681,34.806229 255.819735,37.4441228 256.00563,40.741113 L256.015634,41.0967939 L256.015634,87.1201221 C256.015634,90.5810076 253.185954,93.410687 249.727023,93.410687 C246.385478,93.410687 243.632359,90.7727933 243.446462,87.475803 L243.436458,87.1201221 L243.436458,41.0967939 C243.436458,37.6359084 246.266137,34.806229 249.727023,34.806229 Z M133.983756,40.3620153 C124.337832,40.3620153 116.579664,49.7988397 116.579664,61.3305649 C116.579664,72.9678168 124.337832,82.2971603 133.983756,82.2971603 C143.524153,82.2971603 151.387847,72.9678168 151.387847,61.3305649 C151.387847,49.693313 143.629679,40.3620153 133.983756,40.3620153 Z M199.508031,40.3620153 C189.862107,40.3620153 182.105893,49.7988397 182.105893,61.3305649 C182.105893,72.9678168 189.862107,82.2971603 199.508031,82.2971603 C209.153954,82.2971603 216.912122,72.9678168 216.912122,61.3305649 C216.912122,49.693313 209.153954,40.3620153 199.508031,40.3620153 Z M69.7179847,40.467542 C62.3404858,40.467542 55.9652332,45.9752313 53.4284895,53.8570417 L53.257771,54.4107481 L86.1781985,54.4107481 C83.7667176,46.3379542 77.2650992,40.467542 69.7179847,40.467542 Z" fill="#222222" fill-rule="nonzero"></path>
        </g>
        <g transform="translate(-0.000000, 0.000000)">
            <circle fill="#FF4500" cx="87.8549008" cy="87.8549008" r="87.8549008"></circle>
            <path d="M146.459359,87.8549008 C146.459359,80.7259847 140.694473,75.0646718 133.66913,75.0646718 C130.210198,75.0646718 127.063939,76.4267481 124.757985,78.6291298 C115.952366,72.3385649 103.894962,68.2503817 90.4754809,67.7266565 L96.3458931,40.2584427 L115.426687,44.346626 C115.63774,49.1695878 119.620397,53.0486718 124.548885,53.0486718 C129.580947,53.0486718 133.66913,48.9604885 133.66913,43.9264733 C133.66913,38.8944122 129.580947,34.806229 124.548885,34.806229 C120.984427,34.806229 117.838168,36.903084 116.370565,39.9438168 L95.0893435,35.4354809 C94.4600916,35.3299542 93.8308397,35.4354809 93.410687,35.7501069 C92.8869618,36.0647328 92.5723359,36.588458 92.4687634,37.2177099 L85.967145,67.830229 C72.3385649,68.2503817 60.0720611,72.3385649 51.160916,78.7346565 C48.8549618,76.5322748 45.7087023,75.1701985 42.249771,75.1701985 C35.120855,75.1701985 29.459542,80.935084 29.459542,87.9604275 C29.459542,93.2015878 32.6038473,97.6043969 37.0086107,99.5976794 C36.7975573,100.854229 36.6939847,102.112733 36.6939847,103.476763 C36.6939847,123.184855 59.6538626,139.22687 87.9604275,139.22687 C116.266992,139.22687 139.22687,123.290382 139.22687,103.476763 C139.22687,102.21826 139.121344,100.854229 138.912244,99.5976794 C143.315053,97.6043969 146.459359,93.0960611 146.459359,87.8549008 Z M58.604458,96.975145 C58.604458,91.943084 62.6926412,87.8549008 67.7266565,87.8549008 C72.7587176,87.8549008 76.8469008,91.943084 76.8469008,96.975145 C76.8469008,102.007206 72.7587176,106.097344 67.7266565,106.097344 C62.6926412,106.200916 58.604458,102.007206 58.604458,96.975145 Z M109.661802,121.193527 C103.371237,127.484092 91.4193588,127.904244 87.9604275,127.904244 C84.3959695,127.904244 72.4440916,127.378565 66.2570992,121.193527 C65.3151756,120.249649 65.3151756,118.782046 66.2570992,117.838168 C67.2009771,116.896244 68.6685802,116.896244 69.612458,117.838168 C73.5970687,121.822779 81.9844885,123.184855 87.9604275,123.184855 C93.9363664,123.184855 102.427359,121.822779 106.306443,117.838168 C107.250321,116.896244 108.717924,116.896244 109.661802,117.838168 C110.500153,118.782046 110.500153,120.249649 109.661802,121.193527 Z M107.983145,106.200916 C102.951084,106.200916 98.8629008,102.112733 98.8629008,97.0806718 C98.8629008,92.0486107 102.951084,87.9604275 107.983145,87.9604275 C113.01716,87.9604275 117.105344,92.0486107 117.105344,97.0806718 C117.105344,102.007206 113.01716,106.200916 107.983145,106.200916 Z" fill="#FFFFFF" fill-rule="nonzero"></path>
        </g>
    </g>
</svg>
